!!!COM:	Johannes Ockeghem
!!!CDT:	~1425-1497/02/06
!!!OPR:	Missa Cuiusvis toni (on D)
!!!ONM:	2
!!!OTL:	Gloria
!!!AGN:	Mass; Gloria
!!!SCT:	Ock1004.1b
!!!SCA:	Ock1004.1b
!!!voices:	4
!!!voices-OPR:	4
**kern	**kern	**kern	**kern
*staff4	*staff3	*staff2	*staff1
*Ivox	*Ivox	*Ivox	*Ivox
*I"Bassus	*I"Tenor	*I"Altus	*I"Discantus
*I'B	*I'T	*I'A	*I'D
*>[A,B]	*>[A,B]	*>[A,B]	*>[A,B]
*>A	*>A	*>A	*>A
*clefF4	*clefGv2	*clefGv2	*clefG2
*k[b-]	*k[b-]	*k[b-]	*k[b-]
*M3/1	*M3/1	*M3/1	*M3/1
*met(O)	*met(O)	*met(O)	*met(O)
!!section: Et in terra
!!!OMD: Et in terra
=1-	=1-	=1-	=1-
0.r	0.r	2.d\	1d
.	.	4B-\	.
.	.	2A/	2f/
.	.	2B-\	2g/
.	.	2A/	1a
.	.	[2d\	.
=2	=2	=2	=2
0.r	0.r	2d\]	2a/
.	.	2d\	1a
.	.	1d	.
.	.	.	2b-\
.	.	2c\	2a/
.	.	[2d\	[2b-\
=3	=3	=3	=3
0.r	1r	4d\]	4b-\]
.	.	4c\	4a/
.	.	2A/	1a
.	1r	1B-	.
.	.	.	2g/
.	[1F	1A	2a/
.	.	.	2a/
=4	=4	=4	=4
0.r	1F]	2.c\	2a/
.	.	.	2.cc\
.	.	4d\	.
.	2.E/	1e	.
.	.	.	4b-\
.	.	.	2.b-\
.	4F/	.	.
.	1G	1d	.
.	.	.	4a/
.	.	.	2g/
=5	=5	=5	=5
0.r	2A/	2c\	2f/
.	2.B-\	1d	1g
.	4A/	.	.
.	2F/	2c\	1f
.	1G	4B-\	.
.	.	2B-\	.
.	.	.	2e/
.	.	4A/	.
=6	=6	=6	=6
1F	2F/	2c\	2f/
.	2A/	2d\	2f/
1E	2B-\	1e	2g/
.	2G/	.	2b-\
2F\	[1F	2c\	2a/
[2D\	.	2d\	2a/
=7	=7	=7	=7
2D\]	1F]	2A/	2a/
2F\	.	2d\	2f/
1E	2r	2c\	2g/
.	2G/	2B-\	2.b-\
1D	2F/	2.d\	.
.	.	.	4a/
.	[2A/	.	2f/
.	.	4c\	.
=8	=8	=8	=8
2r	2A/]	1A	2a/
0D	2F/	.	2a/
.	1F	2B-\	2f/
.	.	2.A/	2.a/
.	2r	.	.
.	.	4B-\	4g/
2C/	2G/	2c\	2e/
=9	=9	=9	=9
2D\	2F/	2A/	2d/
4C/	2G/	2B-\	2g/
4BB-/	.	.	.
2AA/	2A/	2c\	2f/
2GG/	1B-	1d	2g/
2BB-/	.	.	4f/
.	.	.	4d/
2C/	2G/	2c\	2e/
=10	=10	=10	=10
2D\	2F/	2A/	2d/
2GG/	4G/	2.B-\	4e/
.	4F/	.	2f/
1D	2D/	.	.
.	.	4A/	4d/
.	2F/	1A	1d
1r	1E	.	.
.	.	2G/	2c#i/
=11	=11	=11	=11
2r	1D	1.A	2d/
2D\	.	.	2d/
2D\	1r	.	2f/
2D\	.	2d\	2f/
2E\	1r	2B-\	2g/
2E\	.	[2c\	2g/
=12	=12	=12	=12
2F\	1r	2c\]	2a/
2F\	.	2c\	2a/
1G	1d	2B-\	2b-\
.	.	2G/	2b-\
1D	2.d\	1F	4a/
.	.	.	2b-\
.	4c\	.	4a/
=13	=13	=13	=13
1D	2A/	2r	2f/
.	2r	2f\	2b-\
2C/	2A/	2e\	2a/
2BB-/	2.B-\	2d\	2.dd\
[1D	.	[1f	.
.	4A/	.	4cc\
.	[2F/	.	2a/
=14	=14	=14	=14
2D\]	2F/]	2f\]	2.b-\
2E\	2G/	2e\	.
.	.	.	2cc\
1F	2A/	1c	.
.	.	.	4a/
.	2c\	.	1a
2r	1B-	1d	.
2BB-/	.	.	2g/
=15	=15	=15	=15
2C/	2A/	2r	2a/
2BB-/	2G/	2d\	1b-
1GG	1B-	2d\	.
.	.	1d	2g/
1D	1A	.	1f
.	.	2d\	.
=16	=16	=16	=16
0.r	0G	0.d	2r
.	.	.	2b-\
.	.	.	2b-\
.	.	.	2.b-\
.	1D	.	.
.	.	.	4a/
.	.	.	2a/
=17	=17	=17	=17
0.r	0.r	1B-	4g/
.	.	.	4f/
.	.	.	2d/
.	.	2c\	2e-i/
.	.	4F/	4d/
.	.	4G/	2B-/
.	.	4B-\	.
.	.	2B-\	4d/
.	.	.	2c/
.	.	4A/	.
=18	=18	=18	=18
2r	2r	1B-	1B-
2BB-/	2F/	.	.
2E-i\	2G/	2r	1r
2E-i\	2G/	2c\	.
2D\	2F/	2d\	1r
2BB-/	2D/	2d\	.
=19	=19	=19	=19
2C/	2E/	2c\	1r
2D\	2F/	2A/	.
1GG	1G	2B-\	2d/
.	.	2B-\	2d/
1D	1F	1A	2f/
.	.	.	2f/
=20	=20	=20	=20
1E	2r	1G	2g/
.	2B-\	.	2g/
2r	2G/	2B-\	2e/
1D	2A/	2A/	1f
.	2B-\	1d	.
2BB-/	2G/	.	2g/
=21	=21	=21	=21
2.AA/	2.F/	2.c\	2.a/
2.GG/	2.G/	4d\	2.b-\
.	.	2e\	.
2.FF/	2.A/	2.f\	2.a/
2.GG/	2.B-\	2.d\	2.g/
=22	=22	=22	=22
2D\	2A/	1d	1f
2BB-/	2D/	.	.
1AA	2E/	1c	1r
.	2F/	.	.
1GG	[1G	1B-	1b-
=23	=23	=23	=23
0.r	0G]	1d	2b-\
.	.	.	1b-
.	.	2e-i\	.
.	.	1d	2b-\
.	2F/	.	2a/
.	2D/	2B-\	2f/
=24	=24	=24	=24
0.r	2E/	2c\	2g/
.	1D	1d	2f/
.	.	.	1d
.	2.G/	2B-\	.
.	.	2c\	2e/
.	4C/	.	.
.	2G/	2B-\	2d/
=25	=25	=25	=25
1r	2A/	2r	2c/
.	1B-	2G/	1d
1r	.	2.B-\	.
.	2G/	.	2B-/
.	.	4c\	.
2.D\	2.F/	1d	1A
4BB-/	4G/	.	.
=26	=26	=26	=26
2AA/	1A	2c\	1r
1D	.	2A/	.
.	2F/	1B-	1d
2BB-/	1G	.	.
1C	.	1r	1e
.	2E/	.	.
=27	=27	=27	=27
2r	1D	1A	2f/
2D\	.	.	4e/
.	.	.	4f/
2.GG/	1G	2.B-\	1g
4AA/	.	4c\	.
1BB-	2r	1d	2f/
.	[2G/	.	2d/
=28	=28	=28	=28
2C/	2G/]	2r	2.e/
2AA/	2A/	2c\	.
.	.	.	4f/
1GG	1B-	1d	1g
2r	2A/	2c\	2f/
2GG/	2G/	2B-\	[2e/
=29	=29	=29	=29
2C/	2E/	2A/	4e/]
.	.	.	4d/
2BB-/	2F/	1B-	1d
1GG	2G/	.	.
.	2E/	2G/	2B-/
2D\	2F/	2F/	2A/
2BB-/	2B-\	2G/	2d/
=30	=30	=30	=30
2.C/	2A/	2A/	2c/
.	2.G/	2c\	2.e/
4BB-/	.	.	.
1GG	.	2B-\	.
.	4F/	.	4d/
.	2D/	2.G/	1d
1r	1E	.	.
.	.	4F/	.
.	.	2G/	2c#i/
=31	=31	=31	=31
0.Dl	0.Dl	0.Al	0.dl
!!LO:LB:i:g=z
=32||	=32||	=32||	=32||
*>B	*>B	*>B	*>B
*clefF4	*clefGv2	*clefGv2	*clefG2
*k[b-]	*k[b-]	*k[b-]	*k[b-]
*M2/1	*M2/1	*M2/1	*M2/1
*met(C|)	*met(C|)	*met(C|)	*met(C|)
!!section: Qui tollis
!!!OMD: Qui tollis
0r	0D	0d	0f
=33	=33	=33	=33
0r	1D	1d	1f
.	1D	1d	1f
=34	=34	=34	=34
0r	1E	1c	1g
.	1F	1c	1a
=35	=35	=35	=35
0r	1G	1B-	1b-
.	1G	1B-	1g
=36	=36	=36	=36
0r	1D	1A	1f
.	1D	1A	1f
=37	=37	=37	=37
0r	1E	1c	1g
.	1D	1d	1f
=38	=38	=38	=38
0r	1E	1B-	1g
.	1C	1c	1e
=39	=39	=39	=39
1r	1D	1A	1f
1D	1D	1A	1f
=40	=40	=40	=40
1GG	1D	1G	1b-
1GG	1D	1G	1b-
=41	=41	=41	=41
1AA	1C	1F	1a
1AA	1C	1F	1f
=42	=42	=42	=42
1GG	1D	1B-	1g
1GG	1E	1B-	1g
=43	=43	=43	=43
1D	1F	1A	1f
1r	1G	1r	1r
=44	=44	=44	=44
1.D	1.A	1.d	1.f
2D\	2A/	2d\	2f/
=45	=45	=45	=45
1D	1A	1d	1f
1D	1A	1d	1f
=46	=46	=46	=46
1D	1F	1B-	1d
1C	2G/	1c	1e
.	2E/	.	.
=47	=47	=47	=47
1BB-	1D	1d	1f
1C	2.E/	1c	2e/
.	.	.	[2g/
.	4C/	.	.
=48	=48	=48	=48
1GG	2D/	1B-	4g/]
.	.	.	4f/
.	2E/	.	2e/
1r	2F/	2A/	2d/
.	[2G/	[2B-\	[2e/
=49	=49	=49	=49
0r	4G/]	2B-\]	2e/]
.	4F/	.	.
.	2D/	1A	1d
.	1E	.	.
.	.	2G/	2c#i/
=50	=50	=50	=50
0r	0D	1A	1d
.	.	1B-	1r
=51	=51	=51	=51
0r	0r	2A/	1d
.	.	1d	.
.	.	.	1e
.	.	2c\	.
=52	=52	=52	=52
0r	0r	2B-\	2d/
.	.	2G/	1g
.	.	1A	.
.	.	.	2f#i/
=53	=53	=53	=53
1r	0r	2G/	1g
.	.	1B-	.
1D	.	.	2r
.	.	2A/	2f/
=54	=54	=54	=54
1.D	0r	2.B-\	2f/
.	.	.	2f/
.	.	4c\	.
.	.	1A	1f
2D\	.	.	.
=55	=55	=55	=55
1E	0r	1G	1g
1D	.	2r	2f/
.	.	2F/	2d/
=56	=56	=56	=56
2.C/	1r	2G/	2e-i/
.	.	2A/	2c/
4BB-/	.	.	.
[1GG	1D	2B-\	1B-
.	.	[2G/	.
=57	=57	=57	=57
1GG]	2BB-/	2G/]	1B-
.	2C/	2E/	.
1r	[1D	1F	1A
=58	=58	=58	=58
1GG	2D/]	1B-	2G/
.	1E-i	.	2B-/
2C/	.	2A/	2c/
[2BB-/	2D/	2G/	[2d/
=59	=59	=59	=59
2BB-/]	1G	2.B-\	2d/]
2GG/	.	.	2B-/
.	.	4c\	.
1D	1F	1d	1A
=60	=60	=60	=60
1r	1r	1r	1r
[1D	[1A	[1d	[1f
=61	=61	=61	=61
2D\]	2A/]	2d\]	2f/]
2D\	2A/	2d\	2f/
1D	1A	1d	1f
=62	=62	=62	=62
1D	1A	2.d\	1f
.	.	4c\	.
1D	1F	2.A/	1d
.	.	4B-\	.
=63	=63	=63	=63
1C	1G	1c	2e/
.	.	.	2g/
2AA/	2A/	2r	2f/
2GG/	[2B-\	[2d\	[2g/
=64	=64	=64	=64
2BB-/	2B-\]	2d\]	2g/]
2C/	1G	2c\	2e/
1D	.	1A	1d
.	2F/	.	.
=65	=65	=65	=65
1GG	1G	1B-	2r
.	.	.	2g/
2r	1E	1c	2g/
2C/	.	.	2g/
=66	=66	=66	=66
2D\	2D/	2r	2f/
2E\	2C/	1c	1g
1C	1E	.	.
.	.	2A/	2e/
=67	=67	=67	=67
2BB-/	1F	1B-	2d/
1D	.	.	2r
.	2r	2A/	2d/
2BB-/	2D/	2B-\	[2f/
=68	=68	=68	=68
1AA	1F	1c	4f/]
.	.	.	4g/
.	.	.	2a/
1GG	1G	2.B-\	2.b-\
.	.	4c\	4a/
=69	=69	=69	=69
0r	1D	0d	2b-\
.	.	.	1a
.	2G/	.	.
.	2B-\	.	[2g/
=70	=70	=70	=70
1r	1A	1c	2g/]
.	.	.	2f/
1G	1G	[1d	1g
=71	=71	=71	=71
2D\	2A/	2d\]	2f/
2E\	2G/	2B-\	2g/
2F\	2r	2A/	2a/
[2G\	2G/	2G/	[2b-\
=72	=72	=72	=72
2G\]	1G	2B-\	2b-\]
2E\	.	2c\	2g/
[1D	[1A	[1d	1f
=73	=73	=73	=73
1D]	1A]	1d]	1r
1D	1A	1d	1f
=74	=74	=74	=74
0D	0A	0d	0f
=75	=75	=75	=75
1E	1G	1c	1g
[1D	2F/	2r	[1a
.	[2F/	[2d\	.
=76	=76	=76	=76
2D\]	2F/]	2d\]	2a/]
2GG/	4E/	2B-\	2g/
.	4F/	.	.
1GG	1G	1B-	1g
=77	=77	=77	=77
1G	1B-	1G	1g
[1G	[1B-	[1d	[1g
=78	=78	=78	=78
2G\]	2B-\]	2d\]	2g/]
2G\	2B-\	2d\	2g/
1G	1B-	1d	1g
=79	=79	=79	=79
1D	1A	1d	1f
1E-i	1G	2B-\	1g
.	.	2c\	.
=80	=80	=80	=80
1BB-	2r	2d\	2f/
.	2.F/	2.B-\	2d/
1C	.	.	1e
.	4D/	4G/	.
.	2E/	2A/	.
=81	=81	=81	=81
2.BB-/	1.F	1B-	2.d/
4AA/	.	.	4c/
2FF/	.	2A/	2d/
[2GG/	2D/	2G/	2B-/
=82	=82	=82	=82
2GG/]	2E/	1c	1A
2FF/	2F/	.	.
1GG	1D	1B-	2G/
.	.	.	2B-/
=83	=83	=83	=83
2AA/	2C/	2r	2c/
2.BB-/	2BB-/	1B-	2.d/
.	2.D/	.	.
4C/	.	.	4e/
[2D\	.	2A/	[2f/
.	4E/	.	.
=84	=84	=84	=84
2D\]	2F/	2B-\	4f/]
.	.	.	4d/
2C/	2G/	2c\	2e/
2D\	2F/	4A/	4d/
.	.	2B-\	2d/
2GG/	[2D/	.	.
.	.	4G/	4B-/
=85	=85	=85	=85
1D	2D/]	2F/	2A/
.	2F/	1A	1d
1E	1E	.	.
.	.	2G/	2c#i/
=86	=86	=86	=86
2r	[0Dl	[0Al	[0dl
1F	.	.	.
2D\	.	.	.
=87	=87	=87	=87
0Dl	0D]	0A]	0d]
==	==	==	==
*-	*-	*-	*-
!!!RDF**kern: l=long note in original notation
!!!RDF**kern: i=editorial accidental
!!!RDF**kern: V=start of tuplet marker
!!!RDF**kern: Z=end of tuplet marker
!!!ENC:	Jesse Rodin 8-19-2012
!!!END:	2012/08/19/
!!!EED:	Jesse Rodin
!!!EEV:	2012/08/28/
!!!ONB:	Translated from MusicXML and edited on 2012/08/28/ by Craig Sapp
!!muse2ps: T^@{OPR}^u^@{ONM}{. }@{OTL}^C^@{COM}^i2I150v85,85,85,150Q16
